flaticon/travel/island.svg

<svg xmlns="http://www.w3.org/2000/svg" width="32" height="32" viewBox="0 0 24 24">
    <path d="M3.199219 21.398438C3.199219 21.621094 3.019531 21.800781 2.800781 21.800781 2.578125 21.800781 2.398438 21.621094 2.398438 21.398438 2.398438 21.179688 2.578125 21 2.800781 21 3.019531 21 3.199219 21.179688 3.199219 21.398438zM6.800781 20.199219C6.800781 20.421875 6.621094 20.601562 6.398438 20.601562 6.179688 20.601562 6 20.421875 6 20.199219 6 19.980469 6.179688 19.800781 6.398438 19.800781 6.621094 19.800781 6.800781 19.980469 6.800781 20.199219zM5.601562 21.398438C5.601562 21.621094 5.421875 21.800781 5.199219 21.800781 4.980469 21.800781 4.800781 21.621094 4.800781 21.398438 4.800781 21.179688 4.980469 21 5.199219 21 5.421875 21 5.601562 21.179688 5.601562 21.398438zM8 21.398438C8 21.621094 7.820312 21.800781 7.601562 21.800781 7.378906 21.800781 7.199219 21.621094 7.199219 21.398438 7.199219 21.179688 7.378906 21 7.601562 21 7.820312 21 8 21.179688 8 21.398438zM9.199219 20.199219C9.199219 20.421875 9.019531 20.601562 8.800781 20.601562 8.578125 20.601562 8.398438 20.421875 8.398438 20.199219 8.398438 19.980469 8.578125 19.800781 8.800781 19.800781 9.019531 19.800781 9.199219 19.980469 9.199219 20.199219zM10.398438 21.398438C10.398438 21.621094 10.222656 21.800781 10 21.800781 9.777344 21.800781 9.601562 21.621094 9.601562 21.398438 9.601562 21.179688 9.777344 21 10 21 10.222656 21 10.398438 21.179688 10.398438 21.398438zM12.800781 21.398438C12.800781 21.621094 12.621094 21.800781 12.398438 21.800781 12.179688 21.800781 12 21.621094 12 21.398438 12 21.179688 12.179688 21 12.398438 21 12.621094 21 12.800781 21.179688 12.800781 21.398438zM16.398438 20.199219C16.398438 20.421875 16.222656 20.601562 16 20.601562 15.777344 20.601562 15.601562 20.421875 15.601562 20.199219 15.601562 19.980469 15.777344 19.800781 16 19.800781 16.222656 19.800781 16.398438 19.980469 16.398438 20.199219zM15.199219 21.398438C15.199219 21.621094 15.019531 21.800781 14.800781 21.800781 14.578125 21.800781 14.398438 21.621094 14.398438 21.398438 14.398438 21.179688 14.578125 21 14.800781 21 15.019531 21 15.199219 21.179688 15.199219 21.398438zM17.601562 21.398438C17.601562 21.621094 17.421875 21.800781 17.199219 21.800781 16.980469 21.800781 16.800781 21.621094 16.800781 21.398438 16.800781 21.179688 16.980469 21 17.199219 21 17.421875 21 17.601562 21.179688 17.601562 21.398438zM18.800781 20.199219C18.800781 20.421875 18.621094 20.601562 18.398438 20.601562 18.179688 20.601562 18 20.421875 18 20.199219 18 19.980469 18.179688 19.800781 18.398438 19.800781 18.621094 19.800781 18.800781 19.980469 18.800781 20.199219zM20 21.398438C20 21.621094 19.820312 21.800781 19.601562 21.800781 19.378906 21.800781 19.199219 21.621094 19.199219 21.398438 19.199219 21.179688 19.378906 21 19.601562 21 19.820312 21 20 21.179688 20 21.398438zM12.308594 6.855469C13.003906 6.019531 14.625 5.574219 15.644531 5.941406 15.996094 6.070312 16.222656 6.277344 16.328125 6.566406 14.664062 9.074219 13.308594 11.609375 12.402344 13.90625L12.34375 14.058594 12.40625 14.207031C12.691406 14.910156 12.957031 15.636719 13.1875 16.375L13.609375 17.707031 13.957031 16.351562C14.859375 12.820312 16.878906 9.070312 17.640625 7.726562 17.957031 8.007812 18.132812 8.414062 18.222656 8.707031 18.546875 9.769531 18.335938 11.089844 17.777344 11.46875 17.59375 11.59375 17.546875 11.84375 17.667969 12.023438 17.746094 12.140625 17.871094 12.199219 18 12.199219 18.078125 12.199219 18.15625 12.179688 18.226562 12.132812 19.1875 11.476562 19.371094 9.722656 18.984375 8.472656 18.9375 8.308594 18.875 8.160156 18.8125 8.015625 19.769531 8.664062 20.398438 9.757812 20.398438 11 20.398438 11.222656 20.578125 11.398438 20.800781 11.398438 21.019531 11.398438 21.199219 11.222656 21.199219 11 21.199219 9.003906 19.863281 7.320312 18.042969 6.78125L17.957031 6.734375C18.472656 6.5625 19.046875 6.582031 19.609375 6.816406 20.5625 7.210938 21.199219 8.089844 21.199219 9 21.199219 9.222656 21.378906 9.398438 21.601562 9.398438 21.820312 9.398438 22 9.222656 22 9 22 7.769531 21.164062 6.59375 19.917969 6.078125 19.226562 5.792969 18.523438 5.753906 17.875 5.925781 18.023438 5.429688 18.015625 4.980469 17.953125 4.632812 17.777344 3.65625 17.136719 2.929688 16.582031 2.644531 16.386719 2.542969 16.144531 2.621094 16.042969 2.816406 15.941406 3.015625 16.019531 3.253906 16.21875 3.355469 16.597656 3.550781 17.042969 4.101562 17.164062 4.773438 17.230469 5.144531 17.1875 5.515625 17.046875 5.875 16.550781 3.992188 14.835938 2.601562 12.800781 2.601562 12.578125 2.601562 12.398438 2.777344 12.398438 3 12.398438 3.222656 12.578125 3.398438 12.800781 3.398438 14.121094 3.398438 15.277344 4.121094 15.902344 5.1875 14.566406 4.710938 12.601562 5.25 11.691406 6.34375 11.550781 6.515625 11.574219 6.765625 11.746094 6.90625 11.914062 7.046875 12.167969 7.027344 12.308594 6.855469zM13.539062 14.917969C13.429688 14.625 13.320312 14.339844 13.207031 14.054688 14.035156 11.988281 15.28125 9.644531 16.746094 7.390625 16.765625 7.394531 16.78125 7.398438 16.800781 7.398438 16.835938 7.398438 16.867188 7.410156 16.902344 7.410156 16.179688 8.691406 14.535156 11.773438 13.539062 14.917969zM13.539062 14.917969"/>
    <path d="M 14.597656 18.691406 C 14.167969 18.671875 13.726562 18.65625 13.28125 18.636719 C 12.515625 15.558594 10.324219 8.84375 5.332031 6.035156 C 5.582031 5.539062 6.136719 5.292969 6.503906 5.179688 C 7.570312 4.851562 8.886719 5.0625 9.269531 5.625 C 9.394531 5.808594 9.640625 5.855469 9.824219 5.730469 C 10.007812 5.605469 10.054688 5.359375 9.929688 5.175781 C 9.277344 4.210938 7.519531 4.03125 6.269531 4.414062 C 6.109375 4.464844 5.957031 4.523438 5.816406 4.589844 C 6.460938 3.632812 7.558594 3 8.800781 3 C 9.019531 3 9.199219 2.820312 9.199219 2.601562 C 9.199219 2.378906 9.019531 2.199219 8.800781 2.199219 C 6.761719 2.199219 5.046875 3.597656 4.550781 5.480469 C 4.359375 4.957031 4.378906 4.367188 4.617188 3.789062 C 5.011719 2.839844 5.886719 2.199219 6.800781 2.199219 C 7.019531 2.199219 7.199219 2.019531 7.199219 1.800781 C 7.199219 1.578125 7.019531 1.398438 6.800781 1.398438 C 5.566406 1.398438 4.394531 2.238281 3.878906 3.484375 C 3.589844 4.175781 3.550781 4.878906 3.726562 5.527344 C 3.40625 5.433594 3.078125 5.402344 2.746094 5.433594 C 1.46875 5.558594 0.527344 6.566406 0.0820312 7.160156 C -0.0507812 7.335938 -0.015625 7.585938 0.160156 7.71875 C 0.230469 7.773438 0.316406 7.800781 0.398438 7.800781 C 0.519531 7.800781 0.640625 7.746094 0.71875 7.640625 C 1.085938 7.15625 1.847656 6.324219 2.824219 6.230469 C 3.109375 6.203125 3.390625 6.242188 3.675781 6.351562 C 1.792969 6.851562 0.398438 8.5625 0.398438 10.601562 C 0.398438 10.820312 0.578125 11 0.800781 11 C 1.019531 11 1.199219 10.820312 1.199219 10.601562 C 1.199219 9.277344 1.917969 8.121094 2.984375 7.496094 C 2.511719 8.832031 3.050781 10.796875 4.144531 11.707031 C 4.21875 11.769531 4.308594 11.800781 4.398438 11.800781 C 4.515625 11.800781 4.628906 11.75 4.707031 11.65625 C 4.847656 11.484375 4.824219 11.234375 4.65625 11.09375 C 3.816406 10.394531 3.375 8.773438 3.742188 7.753906 C 3.863281 7.417969 4.0625 7.195312 4.332031 7.085938 C 7.960938 9.738281 9.964844 15.632812 10.78125 18.628906 L 10.027344 18.652344 C 4.425781 18.8125 0 18.941406 0 22.199219 C 0 22.421875 0.179688 22.601562 0.398438 22.601562 L 23.601562 22.601562 C 23.820312 22.601562 24 22.421875 24 22.199219 C 24 19.054688 19.851562 18.894531 14.597656 18.691406 Z M 10.859375 16.132812 L 11.585938 15.796875 C 11.816406 16.441406 12.011719 17.046875 12.171875 17.597656 L 11.421875 17.941406 C 11.269531 17.398438 11.082031 16.789062 10.859375 16.132812 Z M 10.285156 14.5625 C 10.195312 14.328125 10.097656 14.109375 10.007812 13.882812 L 10.671875 13.578125 C 10.902344 14.074219 11.113281 14.566406 11.300781 15.046875 L 10.59375 15.375 C 10.496094 15.105469 10.394531 14.835938 10.285156 14.5625 Z M 9.691406 13.148438 C 9.46875 12.65625 9.242188 12.1875 9.011719 11.738281 L 9.492188 11.375 C 9.792969 11.863281 10.066406 12.359375 10.320312 12.859375 Z M 9.054688 10.699219 L 8.625 11.027344 C 7.773438 9.507812 6.839844 8.253906 5.832031 7.292969 C 7.113281 8.203125 8.175781 9.402344 9.054688 10.699219 Z M 19.601562 21.800781 L 0.839844 21.800781 C 1.050781 20.761719 2.121094 20.210938 3.742188 19.902344 C 3.65625 19.972656 3.601562 20.078125 3.601562 20.199219 C 3.601562 20.421875 3.777344 20.601562 4 20.601562 C 4.222656 20.601562 4.398438 20.421875 4.398438 20.199219 C 4.398438 20.035156 4.300781 19.890625 4.15625 19.832031 C 5.75 19.578125 7.792969 19.515625 10.050781 19.449219 L 10.988281 19.421875 C 11.132812 19.992188 11.207031 20.359375 11.222656 20.433594 L 11.226562 20.441406 L 11.441406 20.394531 L 12.007812 20.277344 C 12.007812 20.273438 12.007812 20.273438 12.007812 20.269531 C 12.003906 20.253906 12 20.230469 11.992188 20.199219 C 11.992188 20.199219 11.992188 20.195312 11.988281 20.191406 C 11.984375 20.15625 11.976562 20.117188 11.964844 20.074219 C 11.964844 20.070312 11.964844 20.066406 11.964844 20.066406 C 11.953125 20.015625 11.941406 19.960938 11.925781 19.902344 C 11.925781 19.894531 11.925781 19.894531 11.925781 19.890625 C 11.871094 19.652344 11.792969 19.320312 11.6875 18.914062 C 11.6875 18.910156 11.6875 18.910156 11.6875 18.910156 C 11.671875 18.847656 11.65625 18.789062 11.636719 18.722656 L 12.390625 18.378906 C 12.554688 19.007812 12.671875 19.523438 12.742188 19.871094 C 12.746094 19.882812 12.746094 19.898438 12.75 19.910156 C 12.757812 19.945312 12.761719 19.976562 12.769531 20.007812 C 12.773438 20.027344 12.777344 20.054688 12.78125 20.070312 L 12.792969 20.121094 L 13.183594 20.039062 L 13.574219 19.960938 L 13.574219 19.949219 L 13.566406 19.914062 C 13.5625 19.902344 13.558594 19.886719 13.558594 19.871094 C 13.539062 19.78125 13.511719 19.640625 13.46875 19.445312 C 13.839844 19.460938 14.207031 19.476562 14.566406 19.488281 C 19.738281 19.691406 22.800781 19.90625 23.164062 21.800781 Z M 19.601562 21.800781"/>
</svg>

<svg xmlns="http://www.w3.org/2000/svg" width="32" height="32" viewBox="0 0 24 24">
    <path d="M3.2 21.398a.401.401 0 1 1-.803.003.401.401 0 0 1 .802-.003zm0 0M6.8 20.2a.401.401 0 1 1 0 0zm0 0M5.602 21.398a.401.401 0 1 1 0 0zm0 0M8 21.398a.401.401 0 1 1-.802.003.401.401 0 0 1 .802-.003zm0 0M9.2 20.2a.401.401 0 1 1-.803.002.401.401 0 0 1 .802-.003zm0 0M10.398 21.398a.398.398 0 1 1-.796 0 .398.398 0 1 1 .796 0zm0 0M12.8 21.398a.401.401 0 1 1 0 0zm0 0M16.398 20.2a.398.398 0 1 1-.796 0 .398.398 0 1 1 .796 0zm0 0M15.2 21.398a.401.401 0 1 1-.803.003.401.401 0 0 1 .802-.003zm0 0M17.602 21.398a.401.401 0 1 1 0 0zm0 0M18.8 20.2a.401.401 0 1 1 0 0zm0 0M20 21.398a.401.401 0 1 1-.802.003.401.401 0 0 1 .802-.003zm0 0M12.309 6.855c.695-.835 2.316-1.28 3.336-.914.351.13.578.336.683.625-1.664 2.508-3.02 5.043-3.926 7.34l-.058.153.062.148c.285.703.551 1.43.781 2.168l.422 1.332.348-1.355c.902-3.532 2.922-7.282 3.684-8.625.316.28.492.687.582.98.324 1.063.113 2.383-.446 2.762a.402.402 0 0 0-.109.554.393.393 0 0 0 .332.176c.078 0 .156-.02.227-.066.96-.656 1.144-2.41.757-3.66a3.699 3.699 0 0 0-.172-.457A3.598 3.598 0 0 1 20.398 11c0 .223.18.398.403.398a.398.398 0 0 0 .398-.398 4.407 4.407 0 0 0-3.156-4.219l-.086-.047a2.335 2.335 0 0 1 1.652.082C20.562 7.211 21.2 8.09 21.2 9c0 .223.18.398.403.398A.398.398 0 0 0 22 9c0-1.23-.836-2.406-2.082-2.922a3.174 3.174 0 0 0-2.043-.152c.148-.496.14-.946.078-1.293-.176-.977-.816-1.703-1.371-1.988a.401.401 0 0 0-.539.171.398.398 0 0 0 .176.54c.379.195.824.746.945 1.417.066.372.023.743-.117 1.102A4.397 4.397 0 0 0 12.8 2.602a.398.398 0 1 0 0 .796 3.6 3.6 0 0 1 3.101 1.79c-1.336-.477-3.3.062-4.21 1.156a.398.398 0 0 0 .054.562c.168.14.422.121.563-.05zm1.23 8.063c-.11-.293-.219-.578-.332-.863.828-2.067 2.074-4.41 3.54-6.664.019.004.034.007.054.007.035 0 .066.012.101.012-.722 1.281-2.367 4.363-3.363 7.508zm0 0"/>
    <path d="M14.598 18.691c-.43-.02-.871-.035-1.317-.054-.765-3.078-2.957-9.793-7.949-12.602.25-.496.805-.742 1.172-.855 1.066-.328 2.383-.117 2.766.445.125.184.37.23.554.105a.397.397 0 0 0 .106-.554c-.653-.965-2.41-1.145-3.66-.762-.16.05-.313.11-.454.176A3.596 3.596 0 0 1 8.801 3a.4.4 0 0 0 0-.8 4.405 4.405 0 0 0-4.25 3.28c-.192-.523-.172-1.113.066-1.69.395-.95 1.27-1.59 2.184-1.59a.4.4 0 0 0 0-.802c-1.235 0-2.406.84-2.922 2.086a3.123 3.123 0 0 0-.152 2.043 2.6 2.6 0 0 0-.98-.093C1.468 5.559.526 6.566.081 7.16a.399.399 0 1 0 .637.48c.367-.484 1.129-1.316 2.105-1.41.285-.027.567.012.852.122a4.405 4.405 0 0 0-3.278 4.25.401.401 0 0 0 .801 0c0-1.325.719-2.48 1.785-3.106-.472 1.336.067 3.3 1.16 4.211a.4.4 0 0 0 .512-.613c-.84-.7-1.281-2.32-.914-3.34.121-.336.32-.559.59-.668 3.629 2.652 5.633 8.547 6.45 11.543l-.755.023C4.426 18.812 0 18.942 0 22.2c0 .223.18.403.398.403h23.204c.218 0 .398-.18.398-.403 0-3.144-4.148-3.304-9.402-3.508zm-3.739-2.558l.727-.336c.23.644.426 1.25.586 1.8l-.75.344a35.612 35.612 0 0 0-.563-1.808zm-.574-1.57c-.09-.235-.187-.454-.277-.68l.664-.305c.23.496.441.988.629 1.469l-.707.328c-.098-.27-.2-.54-.309-.813zm-.594-1.415c-.222-.492-.449-.96-.68-1.41l.481-.363c.301.488.574.984.828 1.484zM9.055 10.7l-.43.328c-.852-1.52-1.785-2.773-2.793-3.734 1.281.91 2.344 2.11 3.223 3.406zm10.547 11.102H.84c.21-1.04 1.281-1.59 2.902-1.899a.38.38 0 0 0-.14.297.398.398 0 1 0 .796 0 .394.394 0 0 0-.242-.367c1.594-.254 3.637-.316 5.895-.383l.937-.027c.145.57.219.937.235 1.012l.004.007.214-.046.567-.118v-.007c-.004-.016-.008-.04-.016-.07 0 0 0-.005-.004-.009a.775.775 0 0 0-.023-.117v-.008c-.012-.05-.024-.105-.04-.164v-.011c-.054-.239-.132-.57-.238-.977v-.004a4.574 4.574 0 0 0-.05-.187l.754-.344c.164.629.28 1.144.351 1.492.004.012.004.027.008.04.008.034.012.066.02.097.003.02.007.047.011.062l.012.051.39-.082.391-.078v-.012l-.008-.035a.14.14 0 0 1-.007-.043c-.02-.09-.047-.23-.09-.426.37.016.738.032 1.097.043 5.172.203 8.235.418 8.598 2.313zm0 0"/>
</svg>
